!!!!SEGMENT: Ren1001d-Missa_Sine_nomine-Sanctus.krn
!!!id: Ren1001d
!!!AGN: Mass; Sanctus
!!!voices: 4
!!!COM: Renaldo
!!!OPR: Missa Sine nomine
!!!OTL: Sanctus
**kern	**kern	**kern	**kern
*part4	*part3	*part2	*part1
*staff4	*staff3	*staff2	*staff1
*I"Bassus	*I"Tenor	*I"Altus	*I"Superius
*I'B	*I'T	*I'A	*I'S
*clefF4	*clefGv2	*clefG2	*clefG2
*k[b-]	*k[b-]	*k[b-]	*k[b-]
*F:	*F:	*F:	*F:
*M2/1	*M2/1	*M2/1	*M2/1
*met(C|)	*met(C|)	*met(C|)	*met(C|)
!!section: Sanctus
!!!OMD: Sanctus
=1	=1	=1	=1
0r	0r	0d	0r
=2	=2	=2	=2
1r	0r	1c	0r
[1G	.	[1d	.
=3	=3	=3	=3
1G]	0r	2d]	0r
.	.	2e	.
1F	.	1f	.
=4	=4	=4	=4
2G	0d	4B-y	0r
.	.	4c	.
1B-y	.	4d	.
.	.	4e	.
.	.	2f	.
4A	.	[2g	.
4G	.	.	.
=5	=5	=5	=5
1A	1c	2g]	1r
.	.	2f#i	.
[1G	2.d	1g	[1g
.	4c	.	.
=6	=6	=6	=6
2G]	2B-y	0d	1g]
4F	4A	.	.
4E	4G	.	.
1D	1A	.	1f
=7	=7	=7	=7
2r	2G	1d	1g
1G	1B-y	.	.
.	.	2r	2e
2F	[2A	[2d	2f
=8	=8	=8	=8
1E	2A]	2d]	1g
.	2G	2c	.
2.D	2A	2d	2.f
.	2d	[2f	.
4E	.	.	4g
=9	=9	=9	=9
2F	2c	4f]	2a
.	.	4e	.
2G	2B-y	4d	1g
.	.	4c	.
1D	1A	1d	.
.	.	.	2f#i
=10	=10	=10	=10
0E-X	0G	1.B-y	0g
.	.	2c	.
=11	=11	=11	=11
2.D	0A	1.d	0f
4C	.	.	.
4D	.	.	.
4E	.	.	.
4F	.	4c	.
4G	.	4B-y	.
=12	=12	=12	=12
1A	1r	1c	1e
1D	2r	1d	1f
.	2A	.	.
=13	=13	=13	=13
1G	2.B-y	2.d	2g
.	.	.	2b-y
.	4c	4e	.
2r	2.d	2f	2a
[2G	.	2g	[2b-y
.	4c	.	.
=14	=14	=14	=14
2G]	4B-y	2d	2b-]
.	4A	.	.
2F	2.c	2f	2.a
1E	.	2g	.
.	4B-y	.	4g
.	4A	2c	[2g
.	4G	.	.
=15	=15	=15	=15
1D	1A	1.d	2g]
.	.	.	2f#i
2G	2G	.	[1g
2C	2c	2e	.
=16	=16	=16	=16
2G	2B-y	2d	0g_
2.C	1c	1e	.
4D	.	.	.
4E	4B-y	4d	.
4F	4A	4c	.
=17	=17	=17	=17
2G	2B-y	2d	1g]
2C	2c	2e	.
4D	2.A	2.d	1f
4E	.	.	.
4F	.	.	.
4G	4B-y	4e	.
=18	=18	=18	=18
2A	2c	2f	0r
2.B-y	2.d	2.g	.
4A	4c	4f	.
4G	[2c	[2f	.
4F	.	.	.
=19	=19	=19	=19
1G	2c]	2f]	1b-y
.	2B-y	2e	.
1F	[1c	1f	1a
=20	=20	=20	=20
2E	0c_	1r	2g
1F	.	.	1a
.	.	2r	.
4E	.	[2A	4g
4D	.	.	4f
=21	=21	=21	=21
1E	1c]	2A]	1g
.	.	2G	.
2.D	[1d	2.A	2f
.	.	.	[2a
4E	.	4G	.
=22	=22	=22	=22
2F	0d_	2A	4a]
.	.	.	4g
2G	.	2B-y	1g
1D	.	1A	.
.	.	.	2f#i
=23	=23	=23	=23
1G	1d]	2.B-y	2g
.	.	.	2b-y
.	.	4G	.
2r	2d	2A	2a
2G	2d	[2G	2b-y
=24	=24	=24	=24
4C	1e	2G]	1cc
4D	.	.	.
4E	.	1g	.
4F	.	.	.
2G	2d	.	2b-y
2A	[2c	2e	[2a
=25	=25	=25	=25
2F	4c]	4f	4a]
.	4B-y	4e	4g
2G	4A	4d	1g
.	4G	4c	.
1D	1A	1d	.
.	.	.	2f#i
=26	=26	=26	=26
00G	00G	00d	00g
=27||	=27||	=27||	=27||
*M2/1	*M2/1	*M2/1	*M2/1
*met(C|)	*met(C|)	*met(C|)	*met(C|)
!!section: Pleni sunt
!!!OMD: Pleni sunt
0r	0r	0d	0r
=28	=28	=28	=28
1r	0r	1c	0r
[1G	.	[1d	.
=29	=29	=29	=29
1G]	0r	2d]	0r
.	.	2e	.
1F	.	1f	.
=30	=30	=30	=30
2G	0d	4B-y	0r
.	.	4c	.
1B-y	.	4d	.
.	.	4e	.
.	.	2f	.
4A	.	[2g	.
4G	.	.	.
=31	=31	=31	=31
1A	1c	2g]	1r
.	.	2f#i	.
[1G	2.d	1g	[1g
.	4c	.	.
=32	=32	=32	=32
2G]	2B-y	0d	1g]
4F	4A	.	.
4E	4G	.	.
1D	1A	.	1f
=33	=33	=33	=33
2r	2G	1d	1g
1G	1B-y	.	.
.	.	2r	2e
2F	[2A	[2d	2f
=34	=34	=34	=34
1E	2A]	2d]	1g
.	2G	2c	.
2.D	2A	2d	2.f
.	2d	[2f	.
4E	.	.	4g
=35	=35	=35	=35
2F	2c	4f]	2a
.	.	4e	.
2G	2B-y	4d	1g
.	.	4c	.
1D	1A	1d	.
.	.	.	2f#i
=36	=36	=36	=36
1G	0G	0B-y	1g
2r	.	.	2r
2G	.	.	2b-y
=37	=37	=37	=37
2F	0d	2r	2a
1G	.	2.B-y	1b-y
.	.	4c	.
4F	.	4d	4a
4E	.	4e	4g
=38	=38	=38	=38
2D	1d	2f	2a
2G	.	2g	2b-y
2C	[1c	2e	2cc
2F	.	2f	2a
=39	=39	=39	=39
2E	1c]	2g	2g
2F	.	1f	2a
2D	2d	.	2f
2G	2B-y	2e	[2b-y
=40	=40	=40	=40
1F	1c	1f	2b-]
.	.	.	2a
1G	1B-y	2.d	1b-y
.	.	4e	.
=41	=41	=41	=41
2F	2r	1.f	1.a
2E	2c	.	.
2D	1d	.	.
[2G	.	[2d	[2g
=42	=42	=42	=42
2G]	2B-y	2d]	2g]
2C	2c	2e	4f
.	.	.	4e
1D	2A	2.d	1f
.	[2d	.	.
.	.	4c	.
=43	=43	=43	=43
2.G	4d]	4B-y	2d
.	4c	4A	.
.	4B-y	2G	2.g
4F	4A	.	.
4E	2G	1g	.
4D	.	.	4f
2C	2c	.	2e
=44	=44	=44	=44
2G	2B-y	1r	2d
2F	2A	.	2.f
1D	2.d	2r	.
.	.	.	4g
.	.	[2d	[2a
.	4c	.	.
=45	=45	=45	=45
1E-X	2B-y	2d]	4a]
.	.	.	4g
.	4A	2c	1g
.	4G	.	.
1D	1A	1d	.
.	.	.	2f#i
=46	=46	=46	=46
00Gl	00Gl	00dl	00gl
==	==	==	==
*-	*-	*-	*-
!!!system-decoration: [*]
!!!RDF**kern: i = editorial accidental
!!!RDF**kern: l = terminal long
!!!ENC: Benjamin Ory
!!!END: 2024/12/27
!!!EED: Benjamin Ory
!!!EEV: 2025/02/23
!!!YEC: Copyright 2025 Benjamin Ory, All Rights Reserved
!!!ONB: Translated from MusicXML on 2025/02/23